arcticons-dark/symbolic/categories/applications-multimedia-symbolic.svg

<?xml version="1.0" encoding="UTF-8" standalone="no"?>
<svg
   viewBox="0 0 48 48"
   version="1.1"
   id="svg1"
   sodipodi:docname="applications-multimedia.svg"
   xmlns:inkscape="http://www.inkscape.org/namespaces/inkscape"
   xmlns:sodipodi="http://sodipodi.sourceforge.net/DTD/sodipodi-0.dtd"
   xmlns="http://www.w3.org/2000/svg"
   xmlns:svg="http://www.w3.org/2000/svg">
  <sodipodi:namedview
     id="namedview1"
     pagecolor="#ffffff"
     bordercolor="#666666"
     borderopacity="1.0"
     inkscape:showpageshadow="2"
     inkscape:pageopacity="0.0"
     inkscape:pagecheckerboard="0"
     inkscape:deskcolor="#d1d1d1" />
  <defs
     id="defs1">
    <style
       id="style1">.a{fill:none;stroke:#fff;stroke-width:2px;stroke-linecap:round;stroke-linejoin:round;}</style>
  </defs>
  <path
     style="color:#000000;fill:#ffffff;stroke-linecap:round;stroke-linejoin:round;-inkscape-stroke:none"
     d="M 24,1.5 C 11.58545,1.5 1.5,11.58545 1.5,24 1.5,36.41455 11.58545,46.5 24,46.5 36.41455,46.5 46.5,36.41455 46.5,24 46.5,11.58545 36.41455,1.5 24,1.5 Z m 0,2 C 35.333671,3.5 44.5,12.666329 44.5,24 44.5,35.333671 35.333671,44.5 24,44.5 12.666329,44.5 3.5,35.333671 3.5,24 3.5,12.666329 12.666329,3.5 24,3.5 Z"
     id="circle1" />
  <path
     style="color:#000000;fill:#ffffff;stroke-linecap:round;stroke-linejoin:round;-inkscape-stroke:none"
     d="m 19.199219,15.623047 a 1.0001,1.0001 0 0 0 -0.5,0.867187 V 31.509766 A 1.0001,1.0001 0 0 0 20.201172,32.375 l 13,-7.509766 a 1.0001,1.0001 0 0 0 0,-1.730468 l -13,-7.509766 a 1.0001,1.0001 0 0 0 -1.001953,-0.002 z m 1.5,2.599609 L 30.701172,24 20.699219,29.777344 Z"
     id="polygon1" />
</svg>

<?xml version="1.0" encoding="UTF-8"?>
<svg id="svg10" version="1.1" viewBox="0 0 48 48" xmlns="http://www.w3.org/2000/svg">
 <defs id="defs4">
  <style id="style2">.a{fill:none;stroke:#fff;stroke-width:2px;stroke-linecap:round;stroke-linejoin:round;}</style>
 </defs>
 <path id="circle6" d="m24 1.5c-12.415 0-22.5 10.085-22.5 22.5s10.085 22.5 22.5 22.5 22.5-10.085 22.5-22.5-10.085-22.5-22.5-22.5zm0 2c11.334 0 20.5 9.1663 20.5 20.5s-9.1663 20.5-20.5 20.5-20.5-9.1663-20.5-20.5 9.1663-20.5 20.5-20.5z" color="#000000" fill="#fff" stroke-linecap="round" stroke-linejoin="round" style="-inkscape-stroke:none"/>
 <path id="polygon8" d="m19.199 15.623a1.0001 1.0001 0 0 0-0.5 0.86719v15.02a1.0001 1.0001 0 0 0 1.502 0.86523l13-7.5098a1.0001 1.0001 0 0 0 0-1.7305l-13-7.5098a1.0001 1.0001 0 0 0-1.002-2e-3zm1.5 2.5996 10.002 5.7773-10.002 5.7773z" color="#000000" fill="#fff" stroke-linecap="round" stroke-linejoin="round" style="-inkscape-stroke:none"/>
</svg>
